!!!COM: Bach, Johann Sebastian
!!!CDT: 1685/3//-1750/7/28/
!!!OTL@@DE: Was frag' ich nach der Welt
!!!AGN: 4-Part Chorale
!!!SCT: BH 255
!!!SCT: BWV 64
**harm	**root	**kern	**kern	**kern	**kern
!	!	!bass	!tenor	!alto	!soprno
*	*Iorgan	*Iorgan	*Iorgan	*Iorgan	*Iorgan
*M4/4	*M4/4	*M4/4	*M4/4	*M4/4	*M4/4
*met(c)	*met(c)	*met(c)	*met(c)	*met(c)	*met(c)
*MM60	*MM60	*MM60	*MM60	*MM60	*MM60
*k[f#c#g#]	*k[f#c#g#]	*k[f#c#g#]	*k[f#c#g#]	*k[f#c#g#]	*k[f#c#g#]
*A:	*A:	*A:	*A:	*A:	*A:
Vb	4AA	4GG#	4E	4B	4e
=1	=1	=1	=1	=1	=1
I	4DD	8AA	4E	4A	4c#
.	.	8GG#	.	.	.
I	4DD	8AA	4E	8c#	4A
.	.	8BB	.	8B	.
Ib	4DD	8C#	4E	4A	4e
.	.	8BB	.	.	.
Ib	4DD	8C#	4A	8e	4e
.	.	8AA	.	8c#	.
=2	=2	=2	=2	=2	=2
IV;	2.GG;	2.D;	2.A;	2.d;	2.f#;
IV	4GG	4DD	4D	4A	4f#
=3	=3	=3	=3	=3	=3
V7	4AA	8EE	4.D	8G#	4B
.	.	8DD	.	8A	.
V7	4AA	8EE	.	8G#	4B
.	.	8FF#	8C#	8F#	.
Vb	4AA	8GG#	4BB	4E	4e
.	.	8FF#	.	.	.
V7b	4AA	8GG#	4E	4B	4d
.	.	8EE	.	.	.
=4	=4	=4	=4	=4	=4
I	4DD	4AA	4E	4A	4c#
I;	4DD;	4AA;	4C#;	4E;	4A;
r	4r	4r	4r	4r	4r
Ib	4DD	4C#	4E	4A	4e
=5	=5	=5	=5	=5	=5
IV	4GG	4D	8D	4A	4f#
.	.	.	8E	.	.
ii	4EE	4BB	4F#	4d	4f#
Ic	4DD	4E	8G#	4c#	4e
.	.	.	8A	.	.
V7	4AA	4EE	8A	4B	4d
.	.	.	8G#	.	.
=6	=6	=6	=6	=6	=6
I;	2.DD;	2.AA;	2.A;	2.E;	2.c#;
V	4AA	4EE	4G#	4G#	4B
=7	=7	=7	=7	=7	=7
I	4DD	8AA	4E	4A	4c#
.	.	8GG#	.	.	.
V7d/V	4EE	8AA	4F#	4B	4d#
.	.	8FF#	.	.	.
Vb	4.AA	8GG#	4.E	4.B	4.e
.	.	8FF#	.	.	.
.	.	8GG#	.	.	.
vib	8BB	8AA	8A	8c#	8f#
=8	=8	=8	=8	=8	=8
V/V	2EE	4BB	2F#	2B	2d#
.	.	4BBB	.	.	.
V;	4AA;	4EE;	4G#;	4B;	4e;
V	4AA	4EE	4G#	4B	4e
!!linebreak: 2
=9	=9	=9	=9	=9	=9
I	4DD	8AA	4A	8c#	4e
.	.	8GG#	.	8B	.
I	4DD	8AA	4A	8c#	4e
.	.	8BB	.	8d	.
Ib	4DD	8C#	4A	8e	4a
.	.	8BB	.	8d	.
I7b	4DD	8C#	4A	8e	4g
.	.	8AA	.	8c#	.
=10	=10	=10	=10	=10	=10
IV;	2.GG;	2.D;	2.A;	2.d;	2.f#;
Vb/II	4BB	4AA#	8F#	4c#	4f#
.	.	.	8E	.	.
=11	=11	=11	=11	=11	=11
II	4EE	8BB	8D#	4B	4f#
.	.	8AA#	8C#	.	.
II	4EE	8BB	8D#	4B	4f#
.	.	8C#	8E	.	.
IIb	4EE	8D#	8F#	4B	4b
.	.	8C#	8E	.	.
II7b	4EE	8D#	8F#	4B	4a
.	.	8BB	8D#	.	.
=12	=12	=12	=12	=12	=12
V;	2.AA;	2.E;	2.E;	2.B;	2.g#
Ib	4DD	4C#	4A	4A	4e
=13	=13	=13	=13	=13	=13
IV	4GG	8D	4A	4d	4f#
.	.	8E	.	.	.
Ib	4DD	8D	4A	4e	4e
.	.	8C#	.	.	.
IV	4GG	8D	4A	4d	4f#
.	.	8C#	.	.	.
viioD7c/vi	4AA#	8D	4B	8f#	4g#
.	.	8BB	.	8e#	.
=14	=14	=14	=14	=14	=14
vi;	2.BB;	2.F#;	2.c#;	2.f#;	2.a;
Vb	4AA	4GG#	4B	8e	4e
.	.	.	.	8d	.
=15	=15	=15	=15	=15	=15
I	4DD	8AA	4A	4c#	4e
.	.	8BB	.	.	.
iii7	4FF#	8C#	4E	8B	8d
.	.	8D	.	8A	8c#
V	4AA	4E	8E	4A	4B
.	.	.	8F#	.	.
V	4AA	4EE	8E	4G#	4B
.	.	.	8D	.	.
=16	=16	=16	=16	=16	=16
I;	2.DD;	2.AA;	2.C#;	2.E;	2.A;
==	==	==	==	==	==
*-	*-	*-	*-	*-	*-
!!chor2scor: -l 2 -s 0.6 -o %b.pmx
!!!YEC: Copyright 1994, David Huron
!!!YEC: Changes/Additions 2001 by Craig Stuart Sapp
!!!YEN: United States of America
!!!SMA: 371 Bach Chorales, edited by Ludwig Erk, C.F. Peters
!!!PDT: 1850, 1865
!!!ONB: Harmony and Root analysis done manually
